;TIME:996.26
;Filament used:1.32595m
;Layer height:0.200
; HEADER_BLOCK_START
; generated by Creality_Print V7.0.1.4212 on 2026-02-17 at 15:45:22
; total layer number: 102
; filament_density: 1.24
; filament_diameter: 1.75
; max_z_height: 20.40
; creality_uuid: 8ca77232-c892-4dc9-b1ba-ba11b1dd9ce7
; HEADER_BLOCK_END

; MINX = 83.22
; MINY = 94.76
; MINZ = 0.00
; MAXX = 132.74
; MAXY = 125.24
; MAXZ = 20.32

; multicolor_method = 0 
; THUMBNAIL_BLOCK_START

;
; THUMBNAIL_BLOCK_END

; THUMBNAIL_BLOCK_START

;
; THUMBNAIL_BLOCK_END

; external perimeters extrusion width = 0.42mm
; perimeters extrusion width = 0.45mm
; infill extrusion width = 0.45mm
; solid infill extrusion width = 0.42mm
; top infill extrusion width = 0.42mm
; first layer extrusion width = 0.50mm

; EXECUTABLE_BLOCK_START
M73 P0 R16
M201 X5000 Y5000 Z500 E5000
M203 X500 Y500 Z30 E100
M204 P5000 R2500 T5000 ; sets acceleration (P, T) and retract acceleration (R), mm/sec^2
M205 X10.00 Y10.00 Z0.40 E5.00 ; sets the jerk limits, mm/sec
; max_print_temp = 50,210
;TYPE:Custom
M220 S100 ;Reset Feedrate 
M221 S100 ;Reset Flowrate 
 
M140 S50 ;Set final bed temp 
G28 ;Home 
 
G92 E0 ;Reset Extruder 
G1 Z2.0 F3000 ;Move Z Axis up 
M104 S210 ;Set final nozzle temp 
G1 X-2.1 Y20 Z0.28 F5000.0 ;Move to start position 
M190 S50 ;Wait for bed temp to stabilize 
M109 S210 ;Wait for nozzle temp to stabilize 
G1 X-2.1 Y145.0 Z0.28 F1500.0 E15 ;Draw the first line 
G1 X-2.4 Y145.0 Z0.28 F5000.0 ;Move to side a little 
G1 X-2.4 Y20 Z0.28 F1500.0 E30 ;Draw the second line 
G92 E0  ;Reset Extruder 
G1 E-1.0000 F1800 ;Retract a bit 
M73 P1 R16
G1 Z2.0 F3000 ;Move Z Axis up 
G1 E0.0000 F1800
G90
G21
M83 ; use relative distances for extrusion
;filament start gcode
G1 E-1.2 F2400
G1 Z.2 F9000
M106 S0
;LAYER_CHANGE
;:0.2
;HEIGHT:0.2
;BEFORE_LAYER_CHANGE
;0.2
G92 E0
;TIME_ELAPSED:54.540070
;_SET_FAN_SPEED_CHANGING_LAYER
M204 P500
M205 X10 Y10
; OBJECT_ID: 174
; printing object femurjoint-L2-v90 (1).stl id:435677656840 copy 0
M204 T500
G1 X82.982 Y93.406 Z.4 F9000
G1 Z.2
G1 E1.2 F1800
;TYPE:Brim
;WIDTH:0.5
G1 X83.277 Y93.167 E.01369
G1 X83.961 Y92.667 E.03061
G1 X84.722 Y92.214 E.03198
G1 X85.282 Y91.931 E.02265
G1 X85.879 Y91.676 E.02344
G1 X86.36 Y91.503 E.01846
G1 X86.986 Y91.316 E.02359
G1 X87.478 Y91.2 E.01824
G1 X88.18 Y91.077 E.02575
G1 X88.639 Y91.026 E.01667
G1 X89.558 Y90.98 E.0332
G1 X101.223 Y90.986 E.42118
G1 X101.798 Y91.016 E.02078
G1 X102.251 Y91.062 E.01647
G1 X102.83 Y91.152 E.02115
G1 X103.28 Y91.246 E.01661
G1 X103.847 Y91.395 E.02115
G1 X104.285 Y91.535 E.01661
G1 X104.833 Y91.742 E.02115
G1 X105.254 Y91.926 E.01658
G1 X105.989 Y92.301 E.02981
G1 X111.615 Y95.495 E.23359
G1 X112.156 Y95.857 E.02348
G1 X112.63 Y96.289 E.02317
G1 X113.038 Y96.788 E.02327
G1 X113.28 Y97.174 E.01643
G1 X113.563 Y97.755 E.02334
G1 X113.756 Y98.367 E.02317
G1 X113.857 Y99.004 E.0233
G1 X113.872 Y99.367 E.0131
G1 X113.872 Y103.324 E.14287
G1 X113.784 Y104.196 E.03165
G1 X113.518 Y105.072 E.03306
G1 X111.136 Y110.721 E.22136
G1 X111.118 Y110.81 E.00327
G1 X111.119 Y116.151 E.19284
G1 X111.168 Y116.292 E.00538
G1 X111.348 Y116.38 E.00722
G1 X129.556 Y116.38 E.65744
G1 X130.326 Y116.424 E.02783
G1 X130.924 Y116.508 E.02182
G1 X131.236 Y116.574 E.01151
G1 X131.861 Y116.755 E.02348
G1 X132.444 Y117.023 E.02317
G1 X132.981 Y117.373 E.02317
G1 X133.463 Y117.801 E.02325
G1 X133.799 Y118.189 E.01855
G1 X134.167 Y118.72 E.02333
G1 X134.451 Y119.296 E.02317
G1 X134.647 Y119.907 E.02317
G1 X134.751 Y120.544 E.02329
G1 X134.768 Y120.927 E.01386
G1 X134.768 Y124.47 E.12791
G1 X134.72 Y125.118 E.02348
G1 X134.579 Y125.744 E.02317
G1 X134.347 Y126.342 E.02317
G1 X134.027 Y126.903 E.02329
G1 X133.804 Y127.206 E.0136
G1 X133.283 Y127.774 E.02782
G1 X132.78 Y128.171 E.02312
G1 X132.224 Y128.491 E.02317
G1 X131.625 Y128.725 E.02321
G1 X130.947 Y128.888 E.02517
G1 X130.351 Y128.974 E.02175
G1 X129.563 Y129.02 E.02849
G1 X103.57 Y129.02 E.93851
G1 X102.922 Y128.972 E.02348
G1 X102.301 Y128.832 E.02299
G1 X101.346 Y128.413 E.03765
G1 X100.814 Y128.059 E.02307
G1 X100.34 Y127.632 E.02303
G1 X99.761 Y126.878 E.03432
G1 X99.427 Y126.295 E.02426
G1 X99.027 Y125.434 E.03428
G1 X98.852 Y124.958 E.01832
G1 X98.732 Y124.548 E.01542
G1 X98.635 Y124.143 E.01504
G1 X98.527 Y123.476 E.0244
G1 X98.478 Y122.701 E.02803
G1 X98.477 Y113.932 E.3166
G1 X98.458 Y113.554 E.01368
G1 X98.412 Y113.265 E.01055
G1 X98.349 Y113.029 E.00882
G1 X98.254 Y112.778 E.00969
G1 X98.133 Y112.539 E.00969
G1 X97.988 Y112.313 E.00969
G1 X97.804 Y112.086 E.01055
G1 X97.614 Y111.897 E.00969
G1 X97.424 Y111.743 E.00882
G1 X97.2 Y111.596 E.00969
G1 X96.961 Y111.473 E.00969
G1 X96.688 Y111.369 E.01055
G1 X96.429 Y111.3 E.00969
G1 X96.187 Y111.262 E.00882
G1 X95.786 Y111.24 E.01453
G1 X89.302 Y111.233 E.23409
G1 X88.656 Y111.196 E.02338
G1 X88.151 Y111.138 E.01834
G1 X87.094 Y110.934 E.03887
G1 X86.363 Y110.719 E.02752
G1 X85.898 Y110.551 E.01786
G1 X84.966 Y110.138 E.03679
G1 X84.245 Y109.73 E.02992
G1 X83.733 Y109.392 E.02214
G1 X83.068 Y108.887 E.03015
G1 X82.41 Y108.282 E.0323
G1 X81.99 Y107.838 E.02206
G1 X81.443 Y107.172 E.03111
G1 X80.814 Y106.223 E.04109
G1 X80.351 Y105.323 E.03655
G1 X80.156 Y104.87 E.01783
G1 X79.897 Y104.151 E.02758
G1 X79.631 Y103.11 E.0388
G1 X79.543 Y102.608 E.0184
G1 X79.468 Y101.959 E.02358
G1 X79.438 Y101.447 E.01853
G1 X79.437 Y100.793 E.0236
G1 X79.46 Y100.334 E.0166
G1 X79.542 Y99.623 E.02584
G1 X79.628 Y99.126 E.01819
G1 X79.777 Y98.49 E.02358
G1 X79.922 Y97.998 E.01853
G1 X80.143 Y97.383 E.02361
G1 X80.325 Y96.947 E.01707
G1 X80.645 Y96.303 E.02595
G1 X80.85 Y95.937 E.01516
G1 X81.259 Y95.308 E.02707
G1 X81.625 Y94.817 E.02212
G1 X82.222 Y94.126 E.03297
G1 X82.953 Y93.433 E.03636
G1 X83.268 Y93.766 F9000
G1 F1800
G1 X83.288 Y93.747 E.001
G1 X84.219 Y93.046 E.04209
G1 X84.938 Y92.617 E.03023
G1 X85.479 Y92.344 E.02188
G1 X86.043 Y92.103 E.02215
G1 X86.499 Y91.938 E.01751
G1 X87.1 Y91.759 E.02264
G1 X87.574 Y91.647 E.01757
G1 X88.249 Y91.529 E.02475
G1 X88.68 Y91.482 E.01564
G1 X89.572 Y91.437 E.03226
G1 X101.207 Y91.443 E.42009
G1 X102.185 Y91.515 E.0354
G1 X102.745 Y91.602 E.02044
G1 X103.713 Y91.833 E.03593
G1 X104.664 Y92.167 E.03641
G1 X105.062 Y92.341 E.01568
G1 X105.775 Y92.705 E.02891
G1 X111.371 Y95.882 E.23232
G1 X111.865 Y96.212 E.02146
G1 X112.29 Y96.597 E.02072
G1 X112.66 Y97.049 E.02107
G1 X112.883 Y97.402 E.01509
G1 X113.14 Y97.934 E.02133
G1 X113.311 Y98.482 E.02072
G1 X113.4 Y99.042 E.02047
G1 X113.415 Y99.374 E.01199
G1 X113.415 Y103.294 E.14156
G1 X113.335 Y104.093 E.02897
G1 X113.085 Y104.923 E.03132
G1 X110.719 Y110.535 E.21989
G1 X110.673 Y110.71 E.00655
G1 X110.662 Y116.14 E.19605
G1 X110.731 Y116.428 E.01069
G1 X110.834 Y116.601 E.00726
G1 X110.979 Y116.709 E.00654
G1 X111.134 Y116.784 E.0062
G1 X111.363 Y116.837 E.00851
G1 X129.547 Y116.837 E.65654
G1 X130.286 Y116.88 E.02674
G1 X130.84 Y116.958 E.0202
G1 X131.12 Y117.017 E.01032
G1 X131.691 Y117.182 E.02146
G1 X132.213 Y117.42 E.02072
G1 X132.695 Y117.732 E.02072
G1 X133.13 Y118.117 E.02099
G1 X133.442 Y118.476 E.01716
G1 X133.767 Y118.944 E.02057
G1 X134.022 Y119.458 E.02072
G1 X134.198 Y120.004 E.02072
G1 X134.296 Y120.599 E.02175
G1 X134.311 Y120.94 E.01234
G1 X134.311 Y124.448 E.12664
G1 X134.264 Y125.06 E.02219
G1 X134.137 Y125.62 E.02072
G1 X133.928 Y126.154 E.02072
G1 X133.647 Y126.646 E.02044
G1 X133.455 Y126.909 E.01177
G1 X132.962 Y127.445 E.02628
G1 X132.515 Y127.797 E.02055
G1 X132.034 Y128.072 E.01999
G1 X131.497 Y128.284 E.02088
G1 X130.867 Y128.437 E.02337
G1 X130.311 Y128.518 E.02032
G1 X129.554 Y128.563 E.02737
G1 X103.592 Y128.563 E.93737
G1 X102.999 Y128.52 E.02146
M73 P2 R16
G1 X102.432 Y128.391 E.02101
G1 X101.556 Y128.004 E.03458
G1 X101.087 Y127.69 E.02035
G1 X100.67 Y127.311 E.02038
G1 X100.148 Y126.631 E.03092
G1 X99.837 Y126.089 E.02258
G1 X99.447 Y125.253 E.03331
G1 X99.288 Y124.819 E.0167
G1 X99.173 Y124.427 E.01475
G1 X99.082 Y124.048 E.01408
G1 X98.983 Y123.431 E.02255
G1 X98.935 Y122.682 E.0271
G1 X98.935 Y113.936 E.31579
G1 X98.915 Y113.538 E.0144
G1 X98.852 Y113.141 E.0145
G1 X98.774 Y112.862 E.01043
G1 X98.66 Y112.568 E.01142
G1 X98.514 Y112.286 E.01143
G1 X98.377 Y112.072 E.00918
G1 X98.121 Y111.757 E.01467
G1 X97.897 Y111.539 E.01129
G1 X97.67 Y111.358 E.01047
G1 X97.403 Y111.187 E.01145
G1 X97.177 Y111.071 E.00918
G1 X96.797 Y110.925 E.01469
G1 X96.265 Y110.812 E.01965
G1 X95.782 Y110.783 E.01746
G1 X89.312 Y110.775 E.23362
G1 X88.699 Y110.74 E.02216
G1 X88.226 Y110.686 E.01719
G1 X87.196 Y110.487 E.03788
G1 X86.509 Y110.285 E.02584
G1 X86.064 Y110.124 E.0171
G1 X85.178 Y109.732 E.03498
G1 X84.488 Y109.342 E.02861
G1 X83.994 Y109.017 E.02136
G1 X83.357 Y108.532 E.02889
G1 X82.734 Y107.959 E.03055
G1 X82.33 Y107.532 E.02125
G1 X81.807 Y106.894 E.02977
G1 X81.206 Y105.985 E.03935
G1 X80.762 Y105.124 E.03497
G1 X80.58 Y104.698 E.01672
G1 X80.337 Y104.023 E.02591
G1 X80.078 Y103.009 E.0378
G1 X79.995 Y102.538 E.01726
G1 X79.924 Y101.923 E.02235
G1 X79.895 Y101.429 E.01787
G1 X79.894 Y100.808 E.02243
G1 X79.916 Y100.376 E.01563
G1 X79.995 Y99.684 E.02513
G1 X80.077 Y99.214 E.01723
G1 X80.218 Y98.611 E.02235
G1 X80.358 Y98.137 E.01787
G1 X80.568 Y97.552 E.02244
G1 X80.744 Y97.131 E.01648
G1 X81.244 Y96.169 E.03911
G1 X81.632 Y95.573 E.02567
G1 X81.979 Y95.107 E.02098
G1 X82.558 Y94.437 E.03198
G1 X83.238 Y93.793 E.03383
G1 X83.553 Y94.126 F9000
G1 F1800
G1 X83.589 Y94.092 E.00181
G1 X84.481 Y93.422 E.04025
G1 X85.155 Y93.021 E.02832
G1 X85.676 Y92.757 E.02111
G1 X86.207 Y92.53 E.02085
G1 X86.639 Y92.374 E.01657
G1 X87.215 Y92.202 E.0217
G1 X87.67 Y92.094 E.0169
G1 X88.318 Y91.981 E.02375
G1 X88.721 Y91.937 E.01462
G1 X89.587 Y91.894 E.03133
G1 X101.185 Y91.9 E.41877
G1 X102.128 Y91.969 E.03413
G1 X102.651 Y92.05 E.01911
G1 X103.577 Y92.27 E.03435
G1 X104.501 Y92.594 E.03537
G1 X104.87 Y92.756 E.01454
G1 X105.561 Y93.109 E.02802
G1 X111.126 Y96.268 E.23105
G1 X111.574 Y96.568 E.01947
G1 X111.951 Y96.907 E.01828
G1 X112.283 Y97.309 E.01886
G1 X112.485 Y97.631 E.01372
G1 X112.717 Y98.113 E.01929
G1 X112.866 Y98.596 E.01828
G1 X112.943 Y99.081 E.0177
G1 X112.957 Y99.381 E.01086
G1 X112.958 Y103.265 E.14024
G1 X112.886 Y103.99 E.02631
G1 X112.652 Y104.775 E.02957
G1 X110.301 Y110.35 E.21845
G1 X110.233 Y110.588 E.00894
G1 X110.216 Y110.718 E.00475
G1 X110.205 Y116.125 E.19524
G1 X110.285 Y116.527 E.01478
G1 X110.344 Y116.671 E.00562
G1 X110.435 Y116.823 E.0064
G1 X110.57 Y116.973 E.00731
G1 X110.786 Y117.122 E.00946
G1 X111.04 Y117.231 E.00999
G1 X111.376 Y117.294 E.01234
G1 X129.53 Y117.294 E.65546
G1 X130.236 Y117.335 E.02552
G1 X130.773 Y117.411 E.01959
G1 X131.519 Y117.608 E.02788
G1 X131.984 Y117.817 E.0184
G1 X132.409 Y118.092 E.01827
G1 X132.798 Y118.434 E.01871
G1 X133.085 Y118.763 E.01576
G1 X133.366 Y119.169 E.01784
G1 X133.593 Y119.622 E.01829
G1 X133.75 Y120.103 E.01825
G1 X133.841 Y120.66 E.02039
G1 X133.854 Y124.425 E.13594
G1 X133.809 Y125.002 E.0209
G1 X133.695 Y125.494 E.01826
G1 X133.509 Y125.966 E.01829
G1 X133.267 Y126.39 E.01764
G1 X133.106 Y126.612 E.00992
G1 X132.642 Y127.115 E.0247
G1 X132.266 Y127.411 E.01726
G1 X131.844 Y127.654 E.01758
G1 X131.367 Y127.844 E.01855
G1 X130.787 Y127.986 E.02157
G1 X130.27 Y128.062 E.01887
G1 X129.536 Y128.106 E.02654
G1 X103.614 Y128.106 E.93595
G1 X103.078 Y128.067 E.01942
G1 X102.564 Y127.949 E.01901
G1 X101.767 Y127.595 E.0315
G1 X101.362 Y127.322 E.01763
G1 X101 Y126.99 E.01773
G1 X100.535 Y126.384 E.02758
G1 X100.24 Y125.873 E.02131
G1 X99.868 Y125.072 E.0319
G1 X99.724 Y124.68 E.01507
G1 X99.614 Y124.306 E.01407
G1 X99.53 Y123.953 E.01312
G1 X99.439 Y123.386 E.02071
G1 X99.392 Y122.663 E.02617
G1 X99.392 Y113.939 E.31499
G1 X99.372 Y113.522 E.01507
G1 X99.29 Y113.011 E.01868
G1 X99.198 Y112.691 E.01205
G1 X99.088 Y112.408 E.01096
G1 X98.923 Y112.081 E.0132
G1 X98.765 Y111.831 E.01068
G1 X98.434 Y111.423 E.01896
G1 X98.22 Y111.215 E.01077
G1 X97.959 Y111.004 E.01215
G1 X97.655 Y110.805 E.01311
G1 X97.393 Y110.668 E.01067
G1 X96.882 Y110.475 E.01972
G1 X96.369 Y110.367 E.01893
G1 X95.778 Y110.326 E.02139
G1 X89.321 Y110.318 E.23313
G1 X88.742 Y110.285 E.02095
G1 X88.29 Y110.233 E.01642
G1 X87.31 Y110.044 E.03604
G1 X86.655 Y109.852 E.02463
G1 X86.23 Y109.698 E.01635
G1 X85.377 Y109.32 E.03367
G1 X84.73 Y108.955 E.02683
G1 X84.255 Y108.641 E.02057
G1 X83.646 Y108.177 E.02764
G1 X83.059 Y107.637 E.0288
G1 X82.67 Y107.226 E.02043
G1 X82.18 Y106.628 E.02792
G1 X81.605 Y105.76 E.03759
G1 X81.178 Y104.933 E.03359
G1 X81.004 Y104.527 E.01597
G1 X80.773 Y103.882 E.02471
G1 X80.524 Y102.907 E.03633
G1 X80.447 Y102.468 E.0161
G1 X80.38 Y101.887 E.02112
G1 X80.352 Y101.409 E.01731
G1 X80.372 Y100.409 E.03611
G1 X80.448 Y99.745 E.02411
G1 X80.526 Y99.302 E.01626
G1 X80.659 Y98.732 E.02113
G1 X80.794 Y98.275 E.0172
G1 X80.993 Y97.72 E.02127
G1 X81.161 Y97.319 E.0157
G1 X81.643 Y96.394 E.03766
G1 X82.004 Y95.838 E.02394
G1 X82.332 Y95.398 E.01983
G1 X82.894 Y94.749 E.03098
G1 X83.524 Y94.154 E.03129
G1 X83.838 Y94.487 F9000
G1 F1800
G1 X83.891 Y94.437 E.00262
G1 X84.742 Y93.799 E.03842
G1 X85.371 Y93.424 E.02643
G1 X85.873 Y93.17 E.02033
G1 X86.372 Y92.957 E.01956
G1 X86.778 Y92.809 E.01562
G1 X87.329 Y92.645 E.02075
G1 X87.766 Y92.542 E.01622
G1 X88.387 Y92.434 E.02275
G1 X88.761 Y92.393 E.01359
G1 X89.602 Y92.351 E.0304
G1 X101.164 Y92.357 E.41745
G1 X102.071 Y92.423 E.03285
G1 X102.558 Y92.498 E.01778
G1 X103.441 Y92.708 E.03277
G1 X104.338 Y93.022 E.03433
G1 X104.678 Y93.171 E.01338
G1 X105.342 Y93.51 E.02692
G1 X110.882 Y96.655 E.23001
G1 X111.285 Y96.924 E.0175
G1 X111.612 Y97.217 E.01586
G1 X111.906 Y97.571 E.01661
G1 X112.088 Y97.859 E.01231
G1 X112.293 Y98.29 E.01721
G1 X112.422 Y98.71 E.01587
G1 X112.487 Y99.12 E.01499
G1 X112.5 Y99.388 E.00971
G1 X112.501 Y103.236 E.13891
G1 X112.432 Y103.914 E.02462
G1 X112.218 Y104.627 E.02687
G1 X109.882 Y110.165 E.21702
G1 X109.795 Y110.455 E.01092
G1 X109.764 Y110.653 E.00724
G1 X109.748 Y116.112 E.19713
G1 X109.835 Y116.608 E.01816
G1 X109.919 Y116.838 E.00883
G1 X110.038 Y117.049 E.00876
G1 X110.224 Y117.271 E.01047
G1 X110.519 Y117.493 E.01331
G1 X110.856 Y117.649 E.01341
G1 X111.387 Y117.751 E.01953
G1 X129.513 Y117.751 E.65445
G1 X130.185 Y117.79 E.02429
M73 P3 R16
G1 X130.674 Y117.859 E.01784
G1 X131.376 Y118.045 E.02623
G1 X131.773 Y118.226 E.01575
G1 X132.124 Y118.452 E.01508
G1 X132.467 Y118.751 E.01641
G1 X132.728 Y119.05 E.01434
G1 X132.976 Y119.411 E.01582
G1 X133.172 Y119.806 E.0159
G1 X133.306 Y120.221 E.01577
G1 X133.382 Y120.687 E.01703
G1 X133.397 Y124.402 E.13414
G1 X133.353 Y124.942 E.01956
G1 X133.253 Y125.368 E.01579
G1 X133.091 Y125.776 E.01587
G1 X132.887 Y126.135 E.01491
G1 X132.756 Y126.315 E.00803
G1 X132.322 Y126.785 E.0231
G1 X132.001 Y127.036 E.01471
G1 X131.653 Y127.237 E.01449
G1 X131.218 Y127.41 E.0169
G1 X130.706 Y127.535 E.01906
G1 X130.229 Y127.606 E.0174
G1 X129.518 Y127.649 E.0257
G1 X103.636 Y127.649 E.93452
G1 X103.156 Y127.614 E.01736
G1 X102.698 Y127.508 E.017
G1 X101.979 Y127.187 E.02842
G1 X101.638 Y126.955 E.01488
G1 X101.331 Y126.671 E.0151
G1 X100.921 Y126.137 E.0243
G1 X100.644 Y125.657 E.02004
G1 X100.293 Y124.902 E.03007
G1 X100.055 Y124.186 E.02723
G1 X99.978 Y123.858 E.01214
G1 X99.894 Y123.342 E.0189
G1 X99.849 Y122.644 E.02525
G1 X99.849 Y113.942 E.31418
G1 X99.829 Y113.508 E.0157
G1 X99.727 Y112.877 E.02305
G1 X99.622 Y112.52 E.01347
G1 X99.493 Y112.196 E.01257
G1 X99.334 Y111.881 E.01277
G1 X99.156 Y111.594 E.01219
G1 X98.747 Y111.091 E.0234
G1 X98.503 Y110.857 E.0122
G1 X98.203 Y110.618 E.01385
G1 X97.91 Y110.426 E.01266
G1 X97.613 Y110.267 E.01214
G1 X96.968 Y110.026 E.02488
G1 X96.392 Y109.91 E.02121
G1 X95.774 Y109.869 E.02235
G1 X89.331 Y109.861 E.23264
G1 X88.785 Y109.83 E.01974
G1 X88.365 Y109.781 E.01528
G1 X87.412 Y109.597 E.03505
G1 X86.802 Y109.419 E.02295
G1 X86.405 Y109.275 E.01523
G1 X85.589 Y108.914 E.03223
G1 X84.973 Y108.567 E.02553
G1 X84.524 Y108.271 E.01943
G1 X83.935 Y107.822 E.02671
G1 X83.384 Y107.315 E.02706
G1 X83.01 Y106.92 E.01962
G1 X82.553 Y106.361 E.02607
G1 X82.004 Y105.534 E.03584
