;TIME:891.77
;Filament used:1.31262m
;Layer height:0.200
; HEADER_BLOCK_START
; generated by Creality_Print V7.0.1.4212 on 2026-02-17 at 15:48:19
; total layer number: 48
; filament_density: 1.24
; filament_diameter: 1.75
; max_z_height: 9.60
; creality_uuid: 1b039929-10e0-45b9-995c-669efd93af21
; HEADER_BLOCK_END

; MINX = 80.72
; MINY = 100.47
; MINZ = 0.00
; MAXX = 139.14
; MAXY = 119.53
; MAXZ = 9.53

; multicolor_method = 0 
; THUMBNAIL_BLOCK_START

;
; THUMBNAIL_BLOCK_END

; THUMBNAIL_BLOCK_START

;
; THUMBNAIL_BLOCK_END

; external perimeters extrusion width = 0.42mm
; perimeters extrusion width = 0.45mm
; infill extrusion width = 0.45mm
; solid infill extrusion width = 0.42mm
; top infill extrusion width = 0.42mm
; first layer extrusion width = 0.50mm

; EXECUTABLE_BLOCK_START
M73 P0 R14
M201 X5000 Y5000 Z500 E5000
M203 X500 Y500 Z30 E100
M204 P5000 R2500 T5000 ; sets acceleration (P, T) and retract acceleration (R), mm/sec^2
M205 X10.00 Y10.00 Z0.40 E5.00 ; sets the jerk limits, mm/sec
; max_print_temp = 50,210
;TYPE:Custom
M220 S100 ;Reset Feedrate 
M221 S100 ;Reset Flowrate 
 
M140 S50 ;Set final bed temp 
G28 ;Home 
 
G92 E0 ;Reset Extruder 
G1 Z2.0 F3000 ;Move Z Axis up 
M104 S210 ;Set final nozzle temp 
G1 X-2.1 Y20 Z0.28 F5000.0 ;Move to start position 
M190 S50 ;Wait for bed temp to stabilize 
M109 S210 ;Wait for nozzle temp to stabilize 
G1 X-2.1 Y145.0 Z0.28 F1500.0 E15 ;Draw the first line 
G1 X-2.4 Y145.0 Z0.28 F5000.0 ;Move to side a little 
G1 X-2.4 Y20 Z0.28 F1500.0 E30 ;Draw the second line 
G92 E0  ;Reset Extruder 
G1 E-1.0000 F1800 ;Retract a bit 
M73 P1 R14
G1 Z2.0 F3000 ;Move Z Axis up 
G1 E0.0000 F1800
G90
G21
M83 ; use relative distances for extrusion
;filament start gcode
G1 E-1.2 F2400
G1 Z.2 F9000
M106 S0
;LAYER_CHANGE
;:0.2
;HEIGHT:0.2
;BEFORE_LAYER_CHANGE
;0.2
G92 E0
;TIME_ELAPSED:63.161350
;_SET_FAN_SPEED_CHANGING_LAYER
M204 P500
M205 X10 Y10
; OBJECT_ID: 212
; printing object foot-joint-L4-v90 (1).stl id:435677656840 copy 0
M204 T500
G1 X80.75 Y98.908 Z.4 F9000
G1 Z.2
G1 E1.2 F1800
;TYPE:Brim
;WIDTH:0.5
G1 X81.643 Y98.271 E.03962
G1 X82.601 Y97.734 E.03964
G1 X83.419 Y97.38 E.0322
G1 X83.984 Y97.18 E.02163
G1 X84.586 Y97.008 E.02264
G1 X85.068 Y96.898 E.01782
G1 X85.689 Y96.793 E.02275
G1 X86.181 Y96.738 E.01788
G1 X86.81 Y96.702 E.02274
G1 X113.649 Y96.695 E.96904
G1 X114.187 Y96.728 E.01946
G1 X114.74 Y96.829 E.02032
G1 X126.875 Y99.863 E.45163
G1 X138.467 Y99.87 E.41852
G1 X139.115 Y99.918 E.02348
G1 X139.738 Y100.058 E.02304
G1 X140.581 Y100.415 E.03307
G1 X141.2 Y100.812 E.02653
G1 X141.678 Y101.238 E.02313
G1 X142.09 Y101.731 E.02317
G1 X142.422 Y102.276 E.02305
G1 X142.748 Y103.114 E.03248
G1 X142.879 Y103.741 E.02313
G1 X142.918 Y104.32 E.02093
G1 X142.918 Y112.65 E.30077
G1 X142.87 Y113.298 E.02348
G1 X142.728 Y113.924 E.02317
G1 X142.498 Y114.519 E.02302
G1 X141.994 Y115.334 E.03461
G1 X141.49 Y115.903 E.02746
G1 X140.994 Y116.309 E.02312
G1 X140.446 Y116.636 E.02302
G1 X139.541 Y116.971 E.03487
G1 X114.74 Y123.171 E.923
G1 X114.187 Y123.272 E.02032
G1 X113.649 Y123.305 E.01946
G1 X88.458 Y123.305 E.90954
G1 X87.761 Y123.253 E.02522
G1 X87.2 Y123.147 E.02064
G1 X86.654 Y122.97 E.0207
G1 X85.915 Y122.621 E.02952
G1 X85.763 Y122.522 E.00655
G1 X85.588 Y122.492 E.00642
G1 X85.367 Y122.542 E.00818
G1 X84.863 Y122.6 E.01832
G1 X84.194 Y122.605 E.02415
G1 X83.554 Y122.52 E.02331
G1 X83.062 Y122.402 E.01827
G1 X82.438 Y122.166 E.02408
G1 X81.772 Y121.805 E.02736
G1 X81.228 Y121.447 E.02349
G1 X80.815 Y121.14 E.0186
G1 X80.318 Y120.724 E.02339
G1 X79.948 Y120.375 E.01834
G1 X79.275 Y119.645 E.03587
G1 X78.561 Y118.674 E.04351
G1 X78.007 Y117.703 E.04037
G1 X77.564 Y116.68 E.04024
G1 X77.268 Y115.724 E.03615
G1 X77.153 Y115.231 E.01826
G1 X77.041 Y114.593 E.0234
G1 X76.983 Y114.088 E.01837
G1 X76.937 Y113.175 E.03299
G1 X76.937 Y106.831 E.22908
G1 X76.979 Y105.954 E.03168
G1 X77.033 Y105.466 E.01773
G1 X77.137 Y104.845 E.02275
G1 X77.246 Y104.361 E.01788
G1 X77.418 Y103.755 E.02275
G1 X77.579 Y103.289 E.01782
G1 X77.965 Y102.382 E.0356
G1 X78.501 Y101.42 E.03975
G1 X79.137 Y100.524 E.03965
G1 X79.93 Y99.638 E.04297
G1 X80.72 Y98.935 E.03816
G1 X81.024 Y99.276 F9000
G1 F1800
G1 X81.041 Y99.261 E.00081
G1 X81.895 Y98.654 E.03782
G1 X82.81 Y98.142 E.03788
G1 X83.582 Y97.808 E.03037
G1 X84.127 Y97.614 E.02088
G1 X84.696 Y97.452 E.02138
G1 X85.153 Y97.348 E.01691
G1 X85.749 Y97.247 E.02183
G1 X86.223 Y97.193 E.01723
G1 X86.819 Y97.159 E.02154
G1 X113.639 Y97.152 E.96836
G1 X114.139 Y97.184 E.0181
G1 X114.648 Y97.277 E.01867
G1 X126.756 Y100.304 E.45065
G1 X126.884 Y100.32 E.00462
M73 P2 R14
G1 X138.455 Y100.327 E.41779
G1 X139.038 Y100.37 E.0211
G1 X139.585 Y100.492 E.02026
G1 X140.377 Y100.827 E.03104
G1 X140.931 Y101.185 E.02379
G1 X141.356 Y101.565 E.02058
G1 X141.722 Y102.006 E.02072
G1 X142.015 Y102.49 E.02043
G1 X142.305 Y103.234 E.02881
G1 X142.426 Y103.813 E.02136
G1 X142.461 Y104.339 E.01904
G1 X142.46 Y112.638 E.29963
G1 X142.414 Y113.24 E.02182
G1 X142.286 Y113.8 E.02072
G1 X142.08 Y114.325 E.02036
G1 X141.632 Y115.05 E.03079
G1 X141.179 Y115.564 E.02474
G1 X140.722 Y115.939 E.02134
G1 X140.236 Y116.226 E.02036
G1 X139.398 Y116.535 E.03226
G1 X114.648 Y122.723 E.92114
G1 X114.139 Y122.816 E.01867
G1 X113.639 Y122.848 E.0181
G1 X88.48 Y122.848 E.90839
G1 X87.829 Y122.8 E.02358
G1 X87.322 Y122.705 E.01863
G1 X86.832 Y122.547 E.01859
G1 X86.146 Y122.225 E.02735
G1 X86.023 Y122.146 E.00528
G1 X85.829 Y122.07 E.00752
G1 X85.681 Y122.044 E.00543
G1 X85.473 Y122.049 E.00752
G1 X85.282 Y122.092 E.00704
G1 X84.842 Y122.142 E.01599
G1 X84.213 Y122.146 E.02272
G1 X83.645 Y122.071 E.0207
G1 X83.205 Y121.966 E.01631
G1 X82.621 Y121.745 E.02257
G1 X82.012 Y121.415 E.025
G1 X81.494 Y121.075 E.02237
G1 X81.095 Y120.778 E.01794
G1 X80.619 Y120.379 E.02244
G1 X80.27 Y120.05 E.01732
G1 X79.633 Y119.36 E.03391
G1 X78.941 Y118.418 E.0422
G1 X78.413 Y117.491 E.0385
G1 X77.991 Y116.514 E.03843
G1 X77.711 Y115.609 E.03423
G1 X77.602 Y115.144 E.01724
G1 X77.495 Y114.531 E.02245
G1 X77.439 Y114.054 E.01733
G1 X77.394 Y113.16 E.03232
G1 X77.394 Y106.845 E.22803
G1 X77.434 Y105.994 E.03073
G1 X77.487 Y105.525 E.01705
G1 X77.585 Y104.936 E.02156
G1 X77.688 Y104.478 E.01696
G1 X77.853 Y103.896 E.02183
G1 X78.004 Y103.458 E.01674
G1 X78.38 Y102.577 E.03459
G1 X78.893 Y101.658 E.03798
G1 X79.5 Y100.804 E.03783
G1 X80.249 Y99.968 E.04054
G1 X80.994 Y99.303 E.03607
G1 X81.299 Y99.644 F9000
G1 F1800
G1 X81.321 Y99.624 E.00107
G1 X82.146 Y99.037 E.03656
G1 X83.019 Y98.549 E.03613
G1 X83.745 Y98.235 E.02855
G1 X84.27 Y98.049 E.02012
G1 X84.806 Y97.896 E.02013
G1 X85.238 Y97.797 E.01599
G1 X85.809 Y97.7 E.02091
G1 X86.266 Y97.649 E.01659
G1 X86.828 Y97.617 E.02034
G1 X113.629 Y97.609 E.96767
G1 X114.092 Y97.64 E.01673
G1 X114.555 Y97.725 E.01703
G1 X126.707 Y100.759 E.45223
G1 X126.89 Y100.777 E.00664
G1 X138.433 Y100.784 E.41676
G1 X138.961 Y100.823 E.01911
G1 X139.433 Y100.927 E.01747
G1 X140.172 Y101.239 E.02898
G1 X140.661 Y101.556 E.02103
G1 X141.032 Y101.891 E.01803
G1 X141.354 Y102.281 E.01826
G1 X141.608 Y102.704 E.01782
G1 X141.861 Y103.354 E.02518
G1 X141.973 Y103.885 E.01958
G1 X142.003 Y104.359 E.01714
G1 X142.003 Y112.615 E.29811
G1 X141.959 Y113.182 E.02052
G1 X141.845 Y113.674 E.01826
G1 X141.663 Y114.13 E.01771
G1 X141.256 Y114.786 E.02787
G1 X140.868 Y115.226 E.02118
G1 X140.467 Y115.557 E.01876
G1 X140.028 Y115.816 E.01842
G1 X139.256 Y116.1 E.02969
G1 X114.555 Y122.275 E.91929
G1 X114.075 Y122.362 E.01761
G1 X113.62 Y122.391 E.01646
G1 X88.502 Y122.391 E.90692
G1 X87.896 Y122.346 E.02196
G1 X87.443 Y122.262 E.01664
G1 X87.008 Y122.124 E.01647
G1 X86.375 Y121.827 E.02524
G1 X86.183 Y121.718 E.00796
G1 X85.9 Y121.619 E.01083
G1 X85.659 Y121.587 E.00879
G1 X85.469 Y121.592 E.00685
G1 X84.826 Y121.684 E.02346
G1 X84.232 Y121.688 E.02144
G1 X83.735 Y121.622 E.01812
G1 X83.348 Y121.531 E.01434
G1 X82.803 Y121.324 E.02105
G1 X82.252 Y121.025 E.02265
G1 X81.759 Y120.703 E.02125
G1 X81.376 Y120.417 E.01726
G1 X80.92 Y120.035 E.02148
G1 X80.592 Y119.725 E.0163
G1 X79.992 Y119.074 E.03196
G1 X79.321 Y118.162 E.04088
G1 X78.82 Y117.28 E.03662
G1 X78.419 Y116.348 E.03663
G1 X78.153 Y115.493 E.03233
G1 X78.051 Y115.056 E.01621
G1 X77.948 Y114.469 E.02151
G1 X77.895 Y114.021 E.0163
G1 X77.851 Y113.145 E.03165
G1 X77.851 Y106.859 E.22699
G1 X77.89 Y106.035 E.02978
M73 P3 R14
G1 X77.94 Y105.584 E.01636
G1 X78.033 Y105.028 E.02038
G1 X78.13 Y104.594 E.01604
G1 X78.288 Y104.037 E.02091
G1 X78.43 Y103.627 E.01566
G1 X78.794 Y102.772 E.03356
G1 X79.284 Y101.897 E.03621
G1 X79.862 Y101.084 E.03601
G1 X80.567 Y100.298 E.03813
G1 X81.269 Y99.671 E.03398
G1 X81.574 Y100.013 F9000
G1 F1800
G1 X81.613 Y99.978 E.00189
G1 X82.397 Y99.42 E.03475
G1 X83.229 Y98.957 E.03437
G1 X83.908 Y98.662 E.02674
G1 X84.414 Y98.483 E.01937
G1 X84.916 Y98.339 E.01888
G1 X85.324 Y98.246 E.01508
G1 X85.869 Y98.153 E.01999
G1 X86.308 Y98.104 E.01594
G1 X86.837 Y98.074 E.01914
G1 X113.619 Y98.067 E.96697
G1 X114.043 Y98.095 E.01535
G1 X114.462 Y98.173 E.01541
G1 X126.67 Y101.214 E.45425
G1 X126.896 Y101.234 E.00818
G1 X138.411 Y101.241 E.41576
G1 X138.885 Y101.276 E.01716
G1 X139.282 Y101.362 E.01466
G1 X139.968 Y101.651 E.02688
G1 X140.39 Y101.927 E.01822
G1 X140.708 Y102.215 E.01548
G1 X140.985 Y102.554 E.0158
G1 X141.2 Y102.917 E.01523
G1 X141.417 Y103.475 E.02161
G1 X141.519 Y103.957 E.0178
G1 X141.546 Y104.378 E.01523
G1 X141.546 Y112.592 E.29657
G1 X141.503 Y113.122 E.0192
G1 X141.403 Y113.547 E.01578
G1 X141.247 Y113.934 E.01505
G1 X140.88 Y114.521 E.02499
G1 X140.556 Y114.888 E.01769
G1 X140.213 Y115.174 E.01614
G1 X139.82 Y115.405 E.01646
G1 X139.114 Y115.664 E.02713
G1 X114.463 Y121.827 E.91744
G1 X114.012 Y121.908 E.01656
G1 X113.602 Y121.934 E.01484
G1 X88.524 Y121.934 E.90546
G1 X87.962 Y121.893 E.02035
G1 X87.563 Y121.82 E.01465
G1 X87.184 Y121.7 E.01436
G1 X86.329 Y121.286 E.03429
G1 X85.948 Y121.164 E.01446
G1 X85.727 Y121.135 E.00803
G1 X85.464 Y121.135 E.00952
G1 X84.8 Y121.226 E.02417
G1 X84.251 Y121.229 E.01982
G1 X83.824 Y121.173 E.01556
G1 X83.491 Y121.095 E.01235
G1 X82.986 Y120.903 E.01951
G1 X82.491 Y120.635 E.02031
G1 X82.025 Y120.33 E.02012
G1 X81.656 Y120.056 E.01658
G1 X81.221 Y119.69 E.02052
G1 X80.914 Y119.4 E.01528
G1 X80.35 Y118.789 E.03001
G1 X79.702 Y117.906 E.03956
G1 X79.227 Y117.069 E.03473
G1 X78.846 Y116.183 E.03483
G1 X78.596 Y115.378 E.03044
G1 X78.499 Y114.968 E.01519
G1 X78.401 Y114.407 E.02056
G1 X78.352 Y113.987 E.01526
G1 X78.309 Y113.131 E.03098
G1 X78.308 Y106.873 E.22595
G1 X78.346 Y106.075 E.02883
G1 X78.394 Y105.644 E.01567
G1 X78.481 Y105.119 E.01919
G1 X78.573 Y104.71 E.01513
G1 X78.724 Y104.177 E.02
G1 X78.855 Y103.796 E.01457
G1 X79.209 Y102.967 E.03253
G1 X79.675 Y102.135 E.03444
G1 X80.225 Y101.364 E.0342
G1 X80.896 Y100.616 E.03628
G1 X81.544 Y100.039 E.03132
G1 X81.848 Y100.38 F9000
G1 F1800
G1 X81.892 Y100.341 E.00214
G1 X82.635 Y99.812 E.03294
G1 X83.425 Y99.37 E.03267
G1 X84.08 Y99.087 E.02577
G1 X84.549 Y98.92 E.01797
G1 X85.027 Y98.783 E.01794
G1 X85.926 Y98.607 E.0331
G1 X86.854 Y98.531 E.03362
G1 X113.608 Y98.524 E.96597
G1 X113.994 Y98.551 E.01395
G1 X114.37 Y98.621 E.01381
G1 X126.64 Y101.67 E.45651
G1 X126.901 Y101.691 E.00946
G1 X138.389 Y101.698 E.41479
G1 X138.81 Y101.729 E.01523
G1 X139.131 Y101.797 E.01183
G1 X139.762 Y102.063 E.02475
G1 X140.118 Y102.298 E.01538
G1 X140.382 Y102.539 E.01293
G1 X140.615 Y102.826 E.01333
G1 X140.792 Y103.128 E.01265
G1 X140.974 Y103.595 E.0181
G1 X141.066 Y104.029 E.01601
G1 X141.089 Y104.397 E.01331
G1 X141.089 Y112.568 E.29502
G1 X141.048 Y113.061 E.01786
G1 X140.962 Y113.418 E.01327
G1 X140.832 Y113.736 E.0124
G1 X140.505 Y114.255 E.02215
G1 X140.244 Y114.551 E.01426
G1 X139.957 Y114.792 E.0135
G1 X139.612 Y114.995 E.01447
G1 X138.972 Y115.228 E.02458
G1 X114.371 Y121.379 E.91559
G1 X113.965 Y121.452 E.01492
G1 X113.592 Y121.476 E.01349
G1 X88.546 Y121.477 E.90432
G1 X88.013 Y121.438 E.0193
M73 P4 R14
G1 X87.682 Y121.377 E.01215
G1 X87.363 Y121.277 E.01207
G1 X86.537 Y120.878 E.03311
G1 X86.096 Y120.732 E.01676
G1 X85.719 Y120.678 E.01377
G1 X85.393 Y120.683 E.01175
G1 X84.759 Y120.769 E.02311
G1 X84.29 Y120.772 E.01695
G1 X83.913 Y120.723 E.0137
G1 X83.616 Y120.653 E.01101
G1 X83.185 Y120.49 E.01666
G1 X82.731 Y120.245 E.01864
G1 X82.283 Y119.953 E.01929
G1 X81.937 Y119.695 E.01559
G1 X81.529 Y119.351 E.01926
G1 X81.236 Y119.075 E.01455
G1 X80.709 Y118.503 E.02807
G1 X80.091 Y117.663 E.03765
G1 X79.641 Y116.872 E.03287
G1 X79.278 Y116.031 E.03306
G1 X79.039 Y115.262 E.02909
G1 X78.947 Y114.872 E.01446
G1 X78.854 Y114.345 E.01933
G1 X78.807 Y113.945 E.01454
G1 X78.766 Y113.116 E.02997
G1 X78.765 Y106.887 E.22491
G1 X78.803 Y106.102 E.02835
G1 X78.932 Y105.199 E.03295
G1 X79.161 Y104.311 E.03313
G1 X79.284 Y103.956 E.01356
G1 X79.617 Y103.176 E.0306
G1 X80.058 Y102.387 E.03265
G1 X80.578 Y101.657 E.03237
G1 X81.214 Y100.946 E.03443
G1 X81.818 Y100.407 E.02925
G1 X82.117 Y100.753 F9000
G1 F1800
G1 X82.23 Y100.655 E.00541
G1 X82.862 Y100.208 E.02795
G1 X83.555 Y99.815 E.02877
G1 X84.254 Y99.509 E.02753
G1 X85.506 Y99.142 E.04711
G1 X86.229 Y99.029 E.02643
G1 X87.018 Y98.982 E.02854
G1 X113.692 Y98.985 E.96309
G1 X114.128 Y99.042 E.01587
G1 X126.556 Y102.139 E.46246
G1 X138.436 Y102.155 E.42895
G1 X139.062 Y102.254 E.02288
G1 X139.297 Y102.338 E.009
G1 X139.6 Y102.501 E.01241
G1 X139.964 Y102.789 E.01676
G1 X140.11 Y102.937 E.00753
G1 X140.282 Y103.173 E.01052
G1 X140.45 Y103.491 E.01299
G1 X140.598 Y104.021 E.01987
G1 X140.613 Y104.147 E.00458
G1 X140.632 Y112.616 E.30578
G1 X140.562 Y113.117 E.01826
G1 X140.339 Y113.688 E.02215
G1 X140.179 Y113.934 E.01059
G1 X140.026 Y114.117 E.0086
G1 X139.479 Y114.544 E.02507
G1 X139.309 Y114.632 E.0069
G1 X138.963 Y114.759 E.0133
G1 X114.205 Y120.949 E.92144
G1 X113.947 Y120.992 E.00946
G1 X88.425 Y121.017 E.92148
G1 X87.877 Y120.946 E.01995
G1 X87.29 Y120.749 E.02236
G1 X86.774 Y120.436 E.02178
G1 X86.424 Y120.113 E.0172
G1 X86.232 Y119.875 E.01103
G1 X86.13 Y119.824 E.00413
G1 X86.059 Y119.842 E.00263
G1 X85.632 Y120.079 E.01762
G1 X85.109 Y120.251 E.0199
G1 X84.5 Y120.315 E.0221
G1 X83.805 Y120.229 E.02527
G1 X83.52 Y120.133 E.01088
G1 X83.153 Y119.961 E.01463
G1 X82.358 Y119.442 E.03426
G1 X81.666 Y118.856 E.03273
G1 X81.04 Y118.185 E.03315
G1 X80.509 Y117.469 E.0322
G1 X80.062 Y116.694 E.03227
G1 X79.717 Y115.902 E.03121
G1 X79.455 Y115.05 E.03217
G1 X79.291 Y114.17 E.03235
G1 X79.224 Y113.195 E.03525
G1 X79.223 Y106.843 E.22937
G1 X79.294 Y105.798 E.03783
G1 X79.419 Y105.1 E.02559
G1 X79.608 Y104.41 E.02583
G1 X80.058 Y103.312 E.04284
G1 X80.402 Y102.696 E.02549
G1 X80.808 Y102.104 E.02591
G1 X81.683 Y101.127 E.04735
G1 X82.086 Y100.779 E.01923
G1 X82.385 Y101.125 F9000
G1 F1800
G1 X82.534 Y100.997 E.00709
G1 X83.13 Y100.578 E.02631
G1 X83.785 Y100.211 E.02712
G1 X84.443 Y99.924 E.02593
G1 X85.567 Y99.595 E.04229
G1 X86.306 Y99.48 E.02698
G1 X87.047 Y99.438 E.02682
G1 X113.701 Y99.442 E.96235
G1 X114.01 Y99.483 E.01125
G1 X126.516 Y102.6 E.46536
G1 X138.447 Y102.612 E.43077
G1 X138.907 Y102.684 E.01683
G1 X139.09 Y102.745 E.00697
G1 X139.306 Y102.852 E.00871
G1 X139.687 Y103.152 E.0175
G1 X139.778 Y103.252 E.00487
G1 X139.913 Y103.443 E.00846
G1 X140.047 Y103.708 E.01072
G1 X140.156 Y104.139 E.01607
G1 X140.175 Y112.627 E.30644
G1 X140.109 Y113.054 E.0156
M73 P5 R14
G1 X139.956 Y113.438 E.01493
G1 X139.834 Y113.634 E.00835
G1 X139.671 Y113.829 E.00917
G1 X139.264 Y114.141 E.0185
G1 X139.153 Y114.202 E.00461
G1 X138.86 Y114.314 E.01132
G1 X114.089 Y120.507 E.9219
G1 X113.865 Y120.542 E.00818
G1 X88.416 Y120.56 E.91887
G1 X88.023 Y120.513 E.0143
G1 X87.528 Y120.358 E.01872
G1 X87.094 Y120.109 E.01805
G1 X86.726 Y119.77 E.01806
G1 X86.517 Y119.494 E.01251
G1 X86.357 Y119.205 E.01194
G1 X86.265 Y119.137 E.00413
G1 X86.146 Y119.168 E.00442
G1 X85.826 Y119.449 E.01539
G1 X85.488 Y119.645 E.0141
G1 X85.063 Y119.796 E.01628
G1 X84.555 Y119.862 E.0185
G1 X83.958 Y119.798 E.02169
G1 X83.712 Y119.718 E.00933
G1 X83.408 Y119.582 E.01201
G1 X82.658 Y119.097 E.03226
